X: 35502
T: Rude Ring
R: reel
M: 4/4
K: Dminor
G|:AzDE FAdA|BGAF GECE|FDA,D (3FFG AB|Ad{e}d^c deag|
fdec dcBc|(3BBA GB AFDC|A,DFD (3EFG cA|1 GECE D2 (3AA^G:|2 GECE D2 (3EFG||
Ad{e}dA Bfec|dABG AFDC|A,DFD EGcG|Ad{e}d^c defg|
afga fdcA|(3FFG AG FDCA,|B,DFD CEcA|GECE D2 (3EFG|
Ad{e}dA Bfec|dABG AFDC|A,DFD (3EFG cG|Ad{e}d^c deag|
fdec dcBc|(3BBA GB AFDC|A,DFD (3EFG cA|1 GECE D2 (3AAG||
AzDE FAdA|BGAF GECE|FDA,D (3FFG AB|Ad{e}d^c deag|
fdec dcBc|(3BBA GB AFDC|A,DFD (3EFG cA|GECE DEFG|
AzDE FAdA|BGAF GECE|FDA,D FGAB|Ad{e}d^c deag|
fdec dcBc|(3BBA GB AFDC|A,DFD (3EFG cA|GECE D2 (3EFG||
Ad{e}dA Bfec|dABG AFDC|A,DFD (3EEG cG|Ad{e}d^c defg|
afga fdcA|(3FFG AG FDCA,|B,DFD CEcA|GECE D2 (3EFG|
Ad{e}dA Bfec|dABG AFDC|A,DFD (3EFG cG|Ad{e}d^c deag|
fdec dcBc|(3BBA GB AFDC|A,DFD (3EFG cA|GECE D2z2||

